X: 35396
T: Rossinver Braes
R: hornpipe
M: 4/4
K: Gmajor
B,(DD)G BGF(G|G)CB,C BCAG|FGAB ceed|=cded BGFG|
B,(DD)G BGF(G|G)CB,C cBAG|FGAB ceec|1 cAFA GDB,C:|2 cAFA GBdc||
Bded gdb2|degf edBd|c2ac c'cg(c|c)aab fedc|
Bded gdb2|degf edBd|B(cc)(d d)Bd(c|1 c)AFA GBdc:|2 cAFA GDB,C||

